X: 4181
T: PADDY Mc.GHIE
%R: reel
B: James Kerr "Merry Melodies" v.4 p.21 #181
Z: 2016 John Chambers <jc:trillian.mit.edu>
M: C|
L: 1/8
K: A
|:\
E2A2 ABcA | BcBA FGAF |\
E2A2 ABcA | efec (3(BcB) A2 ::\
ceeg aecA | Bddf =gdB=G |\
ceeg aecA |[1 efec (3(BcB) A2 :|[2 ecdB cABG |]

%%sep 1 1 500
%%sep 1 1 500

